public/images/tokens/usdt.svg

<svg width="24" height="24" viewBox="0 0 24 24" fill="none" xmlns="http://www.w3.org/2000/svg">
<path fill-rule="evenodd" clip-rule="evenodd" d="M0 12C0 5.37259 5.37259 0 12 0C18.6274 0 24 5.37259 24 12C24 18.6274 18.6274 24 12 24C5.37259 24 0 18.6274 0 12Z" fill="#50AF95"/>
<path d="M23.5 12C23.5 18.3513 18.3513 23.5 12 23.5C5.64873 23.5 0.5 18.3513 0.5 12C0.5 5.64873 5.64873 0.5 12 0.5C18.3513 0.5 23.5 5.64873 23.5 12Z" stroke="black" stroke-opacity="0.097"/>
<path fill-rule="evenodd" clip-rule="evenodd" d="M13.4243 12.9468C13.3447 12.9528 12.9337 12.9774 12.0169 12.9774C11.2877 12.9774 10.77 12.9555 10.5883 12.9468C7.7703 12.8226 5.66689 12.331 5.66689 11.7424C5.66689 11.1538 7.7703 10.6629 10.5883 10.5367V12.4572C10.7726 12.4705 11.3003 12.5017 12.0295 12.5017C12.9045 12.5017 13.3427 12.4652 13.4216 12.4579V10.538C16.2337 10.6635 18.3325 11.1551 18.3325 11.7424C18.3325 12.3297 16.2343 12.8213 13.4216 12.9462L13.4243 12.9468ZM13.4243 10.3394V8.62075H17.3487V6H6.6639V8.62075H10.5877V10.3387C7.39841 10.4855 5 11.1186 5 11.8773C5 12.6359 7.39841 13.2684 10.5877 13.4158V18.9231H13.4236V13.4138C16.6056 13.267 19 12.6346 19 11.8766C19 11.1186 16.6076 10.4862 13.4236 10.3387L13.4243 10.3394Z" fill="white"/>
</svg>

<svg xmlns="http://www.w3.org/2000/svg" width="24" height="24" viewBox="0 0 24 24" fill="none"><path fill="#50AF95" fill-rule="evenodd" d="M0 12C0 5.373 5.373 0 12 0s12 5.373 12 12-5.373 12-12 12S0 18.627 0 12" clip-rule="evenodd"/><path stroke="#000" stroke-opacity=".097" d="M23.5 12c0 6.351-5.149 11.5-11.5 11.5S.5 18.351.5 12 5.649.5 12 .5 23.5 5.649 23.5 12Z"/><path fill="#fff" fill-rule="evenodd" d="M13.424 12.947c-.08.006-.49.03-1.407.03-.73 0-1.247-.021-1.429-.03-2.818-.124-4.921-.616-4.921-1.205 0-.588 2.103-1.08 4.921-1.205v1.92c.185.013.712.045 1.442.045.875 0 1.313-.037 1.392-.044v-1.92c2.812.126 4.91.617 4.91 1.204 0 .588-2.098 1.08-4.91 1.204zm0-2.608V8.621h3.925V6H6.664v2.62h3.924v1.719c-3.19.146-5.588.78-5.588 1.538 0 .759 2.398 1.391 5.588 1.539v5.507h2.836v-5.51c3.182-.146 5.576-.778 5.576-1.536s-2.392-1.39-5.576-1.538" clip-rule="evenodd"/></svg>
